assets/img/promo/wcc/hero/hero-bg-mobile.svg

<svg width="390" height="561" fill="none" xmlns="http://www.w3.org/2000/svg"><mask id="a" style="mask-type:alpha" maskUnits="userSpaceOnUse" x="0" y="0" width="390" height="561"><path fill="#D9D9D9" d="M0 0h390v561H0z"/></mask><g mask="url(#a)"><path d="M65.464 360.9c44.867-59.364 52.35-90.153 52.35-90.153l-24.19-7.039L-147 569.339s5.573 5.424 13.193 1.319c7.621-4.104 150.698-145.497 199.27-209.768v.01z" fill="#EFEFEF" stroke="#26144D" stroke-width="1.5" stroke-linecap="round" stroke-linejoin="round"/><path d="M102.849 227.642l-14.08 40.023s3.462 6.7 11.727 11.29c10.554 5.867 16.866 2.786 16.866 2.786l23.758-25.947-38.271-28.141v-.011z" fill="#D2233C" stroke="#26144D" stroke-width="1.5" stroke-linecap="round" stroke-linejoin="round"/><path d="M177.193 170.915s-71.697-46.174-98.97-4.4c-29.078 44.539 47.063 83.559 47.063 83.559l51.907-79.159z" fill="#EFEFEF" stroke="#26144D" stroke-width="1.5" stroke-linecap="round" stroke-linejoin="round"/><path d="M313.56 185.434c-80.668 18.107-141.642 12.757-141.642 12.757l-2.639-25.07L592.001 61.42s-4.697 15.828-8.803 21.103c-4.106 5.276-75.655 59.364-269.648 102.901l.01.01z" fill="#D6D6D6" stroke="#26144D" stroke-width="1.5" stroke-linecap="round" stroke-linejoin="round"/><path d="M139.367 33.712c14.808 64.429 6.153 110.382 6.153 110.382l-33.426 5.719L2.115-275s21.11 5.276 27.716 11.871c6.597 6.595 87.097 199.216 109.525 296.84h.011z" fill="#EFEFEF" stroke="#26144D" stroke-width="1.5" stroke-linecap="round" stroke-linejoin="round"/><path d="M109.013 140.57s2.195 23.752 3.514 32.541c.655 4.379 11.484 7.281 21.996 5.719 10.512-1.561 20.898-7.671 20.233-13.633-1.319-11.87-7.483-30.346-7.483-30.346s-7.04 7.038-20.233 8.357c-13.193 1.319-18.038-2.638-18.038-2.638h.011zm97.451 195.955c-6.681 4.97-18.175 10.679-35.58 10.679-16.497 0-26.956-5.139-33.099-9.898l.19-10.182c6.333 4.284 16.286 8.41 31.073 8.41 18.428 0 30.228-6.405 36.719-11.534l.707 12.525h-.01z" fill="#D2233C" stroke="#26144D" stroke-width="1.5" stroke-linecap="round" stroke-linejoin="round"/><path d="M169.036 335.534c-14.787 0-24.73-4.126-31.073-8.41l1.594-85.553 62.652 19.658 3.535 62.772c-6.48 5.128-18.291 11.533-36.719 11.533h.011z" fill="#D6D6D6" stroke="#26144D" stroke-width="1.5" stroke-linecap="round" stroke-linejoin="round"/><path d="M133.939 556.877l3.842-219.581c6.143 4.759 16.613 9.897 33.099 9.897 17.405 0 28.899-5.719 35.58-10.678l12.518 220.362" fill="#D6D6D6"/><path d="M133.939 556.877l3.842-219.581c6.143 4.759 16.613 9.897 33.099 9.897 17.405 0 28.899-5.719 35.58-10.678l12.518 220.362" stroke="#26144D" stroke-width="1.5" stroke-linecap="round" stroke-linejoin="round"/><path d="M335.104 316.044c-2.955 3.809-44.699 27.213-50.905 28.532.771-14.245 1.889-39.284.317-40.846 0 0 13.467-5.571 26.397-13.19 8.728-5.149 18.597-11.543 26.175-16.598.127.138.201.254.222.327 1.319 4.39.876 37.818-2.206 41.775z" fill="#D6D6D6" stroke="#26144D" stroke-width="1.5" stroke-linecap="round" stroke-linejoin="round"/><path d="M337.085 273.943c-7.579 5.055-17.447 11.449-26.176 16.598-12.929 7.619-26.397 13.19-26.397 13.19-1.889-1.889-130.739-81.892-166.709-104.209 3.514-5.73 56.741-34.757 58.947-32.552 2.153 2.152 153.696 99.344 160.335 106.973z" fill="#EFEFEF" stroke="#26144D" stroke-width="1.5" stroke-linecap="round" stroke-linejoin="round"/><path d="M284.196 344.577c-.242.052-.432.073-.559.052-3.515-.443-165.834-91.029-165.834-91.029-2.638-3.082-3.514-48.327 0-54.078 35.97 22.317 164.821 102.32 166.71 104.209 1.573 1.561.454 26.601-.317 40.846z" fill="#999" stroke="#26144D" stroke-width="1.5" stroke-linecap="round" stroke-linejoin="round"/><path d="M306.551 190.764v70.749c0 2.332-2.365 4.221-5.278 4.221-2.913 0-5.277-1.889-5.277-4.221v-70.749c0-.771.507-1.53 1.541-2.111 2.069-1.171 5.404-1.171 7.462 0 1.034.581 1.552 1.34 1.552 2.111z" fill="#D6D6D6" stroke="#26144D" stroke-width="1.5" stroke-linecap="round" stroke-linejoin="round"/><path d="M306.551 190.764c0 .759-.518 1.53-1.552 2.11-2.058 1.161-5.393 1.161-7.462 0-1.034-.58-1.541-1.351-1.541-2.11 0-.76.507-1.53 1.541-2.111 2.069-1.171 5.404-1.171 7.462 0 1.034.581 1.552 1.34 1.552 2.111z" stroke="#26144D" stroke-width="1.4" stroke-linecap="round" stroke-linejoin="round"/><path d="M273.674 234.68v46.945c0 2.332-2.365 4.221-5.278 4.221-2.913 0-5.277-1.889-5.277-4.221V234.68c0-.77.507-1.53 1.541-2.11 2.069-1.171 5.404-1.171 7.462 0 1.035.58 1.552 1.34 1.552 2.11z" fill="#D6D6D6" stroke="#26144D" stroke-width="1.5" stroke-linecap="round" stroke-linejoin="round"/><path d="M273.674 234.68c0 .76-.517 1.53-1.552 2.111-2.058 1.16-5.393 1.16-7.462 0-1.034-.581-1.541-1.351-1.541-2.111 0-.76.507-1.53 1.541-2.11 2.069-1.171 5.404-1.171 7.462 0 1.035.58 1.552 1.34 1.552 2.11z" stroke="#26144D" stroke-width="1.4" stroke-linecap="round" stroke-linejoin="round"/><path d="M285.452 298.275l-14.618-8.441v-13.201l14.618 8.442v13.2z" fill="#999" stroke="#26144D" stroke-width="1.5" stroke-linecap="round" stroke-linejoin="round"/><path d="M317.06 280.021l-31.431 18.138v-13.19l31.431-18.149v13.201z" fill="#D6D6D6" stroke="#26144D" stroke-width="1.5" stroke-linecap="round" stroke-linejoin="round"/><path d="M285.252 285.022l31.421-18.138-14.629-8.442-31.421 18.139 14.629 8.441z" fill="#EFEFEF" stroke="#26144D" stroke-width="1.5" stroke-linecap="round" stroke-linejoin="round"/><path d="M301.242 331.039l-1.087.633c-.58.338-1.055-.021-1.055-.802v-24.902c0-.781.475-1.688 1.055-2.026l1.087-.633c.581-.338 1.056.021 1.056.802v24.902c0 .781-.475 1.688-1.056 2.026zm5.93-3.43l-1.087.633c-.581.338-1.056-.021-1.056-.801v-24.903c0-.78.475-1.688 1.056-2.025l1.087-.634c.58-.337 1.055.022 1.055.802v24.902c0 .781-.475 1.689-1.055 2.026zm6.226-3.587l-1.087.633c-.58.337-1.055-.022-1.055-.802v-24.902c0-.781.475-1.689 1.055-2.026l1.087-.633c.581-.338 1.056.021 1.056.801v24.903c0 .78-.475 1.688-1.056 2.026zm6.125-3.545l-1.087.633c-.58.337-1.055-.021-1.055-.802v-24.902c0-.781.475-1.689 1.055-2.026l1.087-.633c.581-.338 1.056.021 1.056.802v24.902c0 .78-.475 1.688-1.056 2.026zm5.838-3.367l-1.087.633c-.58.338-1.055-.021-1.055-.801v-24.903c0-.78.475-1.688 1.055-2.026l1.087-.633c.581-.337 1.056.022 1.056.802v24.902c0 .781-.475 1.689-1.056 2.026z" stroke="#26144D" stroke-width="1.3" stroke-linecap="round" stroke-linejoin="round"/><path d="M283.71 155.965c2.833 0 5.129-2.627 5.129-5.867s-2.296-5.867-5.129-5.867c-2.833 0-5.13 2.627-5.13 5.867s2.297 5.867 5.13 5.867z" fill="#D6D6D6" stroke="#26144D" stroke-width="1.5" stroke-linecap="round" stroke-linejoin="round"/><path d="M301.449 148.051v42.513" stroke="#26144D" stroke-width="2" stroke-linecap="round" stroke-linejoin="round"/><path d="M286.211 150.689l14.66-.591m7.618-9.085l-7.04 9.085m14.084 6.457l-14.365-6.457" stroke="#26144D" stroke-width="1.5" stroke-linecap="round" stroke-linejoin="round"/><path d="M308.323 146.289c2.658 0 4.813-2.891 4.813-6.458 0-3.566-2.155-6.457-4.813-6.457s-4.813 2.891-4.813 6.457c0 3.567 2.155 6.458 4.813 6.458z" fill="#999" stroke="#26144D" stroke-width="1.5" stroke-linecap="round" stroke-linejoin="round"/><path d="M317.591 163.583c2.43 0 4.401-2.821 4.401-6.3 0-3.479-1.971-6.299-4.401-6.299-2.431 0-4.402 2.82-4.402 6.299 0 3.479 1.971 6.3 4.402 6.3z" fill="#D6D6D6" stroke="#26144D" stroke-width="1.5" stroke-linecap="round" stroke-linejoin="round"/><path d="M268.682 212.036v22.422" stroke="#26144D" stroke-width="2" stroke-linecap="round" stroke-linejoin="round"/><path d="M302.702 215.551l-26.397 4.4 26.101 15.247s.728-20.08.296-19.647z" fill="#999" stroke="#26144D" stroke-width="1.5" stroke-linecap="round" stroke-linejoin="round"/><path d="M304.316 236.443l-66.42-38.767" stroke="#26144D" stroke-width="1.5" stroke-linecap="round" stroke-linejoin="round"/><path d="M144.231 349.937c.707 31.518-1.404 64.228-1.499 95.535m2.346-149.517c-.137 7.417-.137 15.859-.369 23.635m-67.666-25.387l-87.38 111.985M70.742-30.928l39.147 152.736M80.57 170.473s-6.45 9.38-4.106 24.036" stroke="#fff" stroke-width="1.5" stroke-linecap="round" stroke-linejoin="round"/></g></svg>

<svg width="390" height="561" viewBox="0 0 390 561" fill="none" xmlns="http://www.w3.org/2000/svg">
<mask id="mask0_1319_7" style="mask-type:alpha" maskUnits="userSpaceOnUse" x="0" y="0" width="390" height="561">
<rect width="390" height="561" fill="#D9D9D9"/>
</mask>
<g mask="url(#mask0_1319_7)">
<path d="M65.4637 360.9C110.331 301.536 117.814 270.747 117.814 270.747L93.6233 263.708L-147 569.339C-147 569.339 -141.427 574.763 -133.807 570.658C-126.186 566.554 16.8915 425.161 65.4637 360.89V360.9Z" fill="#EFEFEF" stroke="#26144D" stroke-width="1.5" stroke-linecap="round" stroke-linejoin="round"/>
<path d="M102.849 227.642L88.7695 267.665C88.7695 267.665 92.2314 274.365 100.496 278.955C111.05 284.822 117.362 281.741 117.362 281.741L141.12 255.794L102.849 227.653V227.642Z" fill="#D2233C" stroke="#26144D" stroke-width="1.5" stroke-linecap="round" stroke-linejoin="round"/>
<path d="M177.193 170.915C177.193 170.915 105.496 124.741 78.223 166.515C49.1451 211.054 125.286 250.074 125.286 250.074L177.193 170.915Z" fill="#EFEFEF" stroke="#26144D" stroke-width="1.5" stroke-linecap="round" stroke-linejoin="round"/>
<path d="M313.56 185.434C232.892 203.541 171.918 198.191 171.918 198.191L169.279 173.121L592.001 61.4199C592.001 61.4199 587.304 77.2475 583.198 82.5234C579.092 87.7992 507.543 141.887 313.55 185.424L313.56 185.434Z" fill="#D6D6D6" stroke="#26144D" stroke-width="1.5" stroke-linecap="round" stroke-linejoin="round"/>
<path d="M139.367 33.7119C154.175 98.1408 145.52 144.094 145.52 144.094L112.094 149.813L2.11523 -275C2.11523 -275 23.2244 -269.724 29.8315 -263.129C36.4282 -256.534 116.928 -63.9127 139.356 33.7119H139.367Z" fill="#EFEFEF" stroke="#26144D" stroke-width="1.5" stroke-linecap="round" stroke-linejoin="round"/>
<path d="M109.013 140.57C109.013 140.57 111.208 164.322 112.527 173.111C113.182 177.49 124.011 180.392 134.523 178.83C145.035 177.269 155.421 171.159 154.756 165.197C153.437 153.327 147.273 134.851 147.273 134.851C147.273 134.851 140.233 141.889 127.04 143.208C113.847 144.527 109.002 140.57 109.002 140.57H109.013Z" fill="#D2233C" stroke="#26144D" stroke-width="1.5" stroke-linecap="round" stroke-linejoin="round"/>
<path d="M206.464 336.525C199.783 341.495 188.289 347.204 170.884 347.204C154.387 347.204 143.928 342.065 137.785 337.306L137.975 327.124C144.308 331.408 154.261 335.534 169.048 335.534C187.476 335.534 199.276 329.129 205.767 324L206.474 336.525H206.464Z" fill="#D2233C" stroke="#26144D" stroke-width="1.5" stroke-linecap="round" stroke-linejoin="round"/>
<path d="M169.036 335.534C154.249 335.534 144.306 331.408 137.963 327.124L139.557 241.571L202.209 261.229L205.744 324.001C199.264 329.129 187.453 335.534 169.025 335.534H169.036Z" fill="#D6D6D6" stroke="#26144D" stroke-width="1.5" stroke-linecap="round" stroke-linejoin="round"/>
<path d="M133.939 556.877L137.781 337.296C143.924 342.055 154.394 347.193 170.88 347.193C188.285 347.193 199.779 341.474 206.46 336.515L218.978 556.877" fill="#D6D6D6"/>
<path d="M133.939 556.877L137.781 337.296C143.924 342.055 154.394 347.193 170.88 347.193C188.285 347.193 199.779 341.474 206.46 336.515L218.978 556.877" stroke="#26144D" stroke-width="1.5" stroke-linecap="round" stroke-linejoin="round"/>
<path d="M335.104 316.044C332.149 319.853 290.405 343.257 284.199 344.576C284.97 330.331 286.088 305.292 284.516 303.73C284.516 303.73 297.983 298.159 310.913 290.54C319.641 285.391 329.51 278.997 337.088 273.942C337.215 274.08 337.289 274.196 337.31 274.269C338.629 278.659 338.186 312.087 335.104 316.044Z" fill="#D6D6D6" stroke="#26144D" stroke-width="1.5" stroke-linecap="round" stroke-linejoin="round"/>
<path d="M337.085 273.943C329.506 278.998 319.638 285.392 310.909 290.541C297.98 298.16 284.512 303.731 284.512 303.731C282.623 301.842 153.773 221.839 117.803 199.522C121.317 193.792 174.544 164.765 176.75 166.97C178.903 169.122 330.446 266.314 337.085 273.943Z" fill="#EFEFEF" stroke="#26144D" stroke-width="1.5" stroke-linecap="round" stroke-linejoin="round"/>
<path d="M284.196 344.577C283.954 344.629 283.764 344.65 283.637 344.629C280.122 344.186 117.803 253.6 117.803 253.6C115.165 250.518 114.289 205.273 117.803 199.522C153.773 221.839 282.624 301.842 284.513 303.731C286.086 305.292 284.967 330.332 284.196 344.577Z" fill="#999999" stroke="#26144D" stroke-width="1.5" stroke-linecap="round" stroke-linejoin="round"/>
<path d="M306.551 190.764V261.513C306.551 263.845 304.186 265.734 301.273 265.734C298.36 265.734 295.996 263.845 295.996 261.513V190.764C295.996 189.993 296.503 189.234 297.537 188.653C299.606 187.482 302.941 187.482 304.999 188.653C306.033 189.234 306.551 189.993 306.551 190.764Z" fill="#D6D6D6" stroke="#26144D" stroke-width="1.5" stroke-linecap="round" stroke-linejoin="round"/>
<path d="M306.551 190.764C306.551 191.523 306.033 192.294 304.999 192.874C302.941 194.035 299.606 194.035 297.537 192.874C296.503 192.294 295.996 191.523 295.996 190.764C295.996 190.004 296.503 189.234 297.537 188.653C299.606 187.482 302.941 187.482 304.999 188.653C306.033 189.234 306.551 189.993 306.551 190.764Z" stroke="#26144D" stroke-width="1.4" stroke-linecap="round" stroke-linejoin="round"/>
<path d="M273.674 234.68V281.625C273.674 283.957 271.309 285.846 268.396 285.846C265.483 285.846 263.119 283.957 263.119 281.625V234.68C263.119 233.91 263.626 233.15 264.66 232.57C266.729 231.399 270.064 231.399 272.122 232.57C273.157 233.15 273.674 233.91 273.674 234.68Z" fill="#D6D6D6" stroke="#26144D" stroke-width="1.5" stroke-linecap="round" stroke-linejoin="round"/>
<path d="M273.674 234.68C273.674 235.44 273.157 236.21 272.122 236.791C270.064 237.951 266.729 237.951 264.66 236.791C263.626 236.21 263.119 235.44 263.119 234.68C263.119 233.92 263.626 233.15 264.66 232.57C266.729 231.399 270.064 231.399 272.122 232.57C273.157 233.15 273.674 233.91 273.674 234.68Z" stroke="#26144D" stroke-width="1.4" stroke-linecap="round" stroke-linejoin="round"/>
<path d="M285.452 298.275L270.834 289.834V276.633L285.452 285.075V298.275Z" fill="#999999" stroke="#26144D" stroke-width="1.5" stroke-linecap="round" stroke-linejoin="round"/>
<path d="M317.06 280.021L285.629 298.159V284.969L317.06 266.82V280.021Z" fill="#D6D6D6" stroke="#26144D" stroke-width="1.5" stroke-linecap="round" stroke-linejoin="round"/>
<path d="M285.252 285.022L316.673 266.884L302.044 258.442L270.623 276.581L285.252 285.022Z" fill="#EFEFEF" stroke="#26144D" stroke-width="1.5" stroke-linecap="round" stroke-linejoin="round"/>
<path d="M301.242 331.039L300.155 331.672C299.575 332.01 299.1 331.651 299.1 330.87V305.968C299.1 305.187 299.575 304.28 300.155 303.942L301.242 303.309C301.823 302.971 302.298 303.33 302.298 304.111V329.013C302.298 329.794 301.823 330.701 301.242 331.039Z" stroke="#26144D" stroke-width="1.3" stroke-linecap="round" stroke-linejoin="round"/>
<path d="M307.172 327.609L306.085 328.242C305.504 328.58 305.029 328.221 305.029 327.441V302.538C305.029 301.758 305.504 300.85 306.085 300.513L307.172 299.879C307.752 299.542 308.227 299.901 308.227 300.681V325.583C308.227 326.364 307.752 327.272 307.172 327.609Z" stroke="#26144D" stroke-width="1.3" stroke-linecap="round" stroke-linejoin="round"/>
<path d="M313.398 324.022L312.311 324.655C311.731 324.992 311.256 324.633 311.256 323.853V298.951C311.256 298.17 311.731 297.262 312.311 296.925L313.398 296.292C313.979 295.954 314.454 296.313 314.454 297.093V321.996C314.454 322.776 313.979 323.684 313.398 324.022Z" stroke="#26144D" stroke-width="1.3" stroke-linecap="round" stroke-linejoin="round"/>
<path d="M319.523 320.477L318.436 321.11C317.856 321.447 317.381 321.089 317.381 320.308V295.406C317.381 294.625 317.856 293.717 318.436 293.38L319.523 292.747C320.104 292.409 320.579 292.768 320.579 293.549V318.451C320.579 319.231 320.104 320.139 319.523 320.477Z" stroke="#26144D" stroke-width="1.3" stroke-linecap="round" stroke-linejoin="round"/>
<path d="M325.361 317.11L324.274 317.743C323.694 318.081 323.219 317.722 323.219 316.942V292.039C323.219 291.259 323.694 290.351 324.274 290.013L325.361 289.38C325.942 289.043 326.417 289.402 326.417 290.182V315.084C326.417 315.865 325.942 316.773 325.361 317.11Z" stroke="#26144D" stroke-width="1.3" stroke-linecap="round" stroke-linejoin="round"/>
<path d="M283.71 155.965C286.543 155.965 288.839 153.338 288.839 150.098C288.839 146.858 286.543 144.231 283.71 144.231C280.877 144.231 278.58 146.858 278.58 150.098C278.58 153.338 280.877 155.965 283.71 155.965Z" fill="#D6D6D6" stroke="#26144D" stroke-width="1.5" stroke-linecap="round" stroke-linejoin="round"/>
<path d="M301.449 148.051V190.564" stroke="#26144D" stroke-width="2" stroke-linecap="round" stroke-linejoin="round"/>
<path d="M286.211 150.689L300.871 150.098" stroke="#26144D" stroke-width="1.5" stroke-linecap="round" stroke-linejoin="round"/>
<path d="M308.489 141.013L301.449 150.098" stroke="#26144D" stroke-width="1.5" stroke-linecap="round" stroke-linejoin="round"/>
<path d="M315.533 156.555L301.168 150.098" stroke="#26144D" stroke-width="1.5" stroke-linecap="round" stroke-linejoin="round"/>
<path d="M308.323 146.289C310.981 146.289 313.136 143.398 313.136 139.831C313.136 136.265 310.981 133.374 308.323 133.374C305.665 133.374 303.51 136.265 303.51 139.831C303.51 143.398 305.665 146.289 308.323 146.289Z" fill="#999999" stroke="#26144D" stroke-width="1.5" stroke-linecap="round" stroke-linejoin="round"/>
<path d="M317.591 163.583C320.021 163.583 321.992 160.762 321.992 157.283C321.992 153.804 320.021 150.984 317.591 150.984C315.16 150.984 313.189 153.804 313.189 157.283C313.189 160.762 315.16 163.583 317.591 163.583Z" fill="#D6D6D6" stroke="#26144D" stroke-width="1.5" stroke-linecap="round" stroke-linejoin="round"/>
<path d="M268.682 212.036V234.458" stroke="#26144D" stroke-width="2" stroke-linecap="round" stroke-linejoin="round"/>
<path d="M302.702 215.551L276.305 219.951L302.406 235.198C302.406 235.198 303.134 215.118 302.702 215.551Z" fill="#999999" stroke="#26144D" stroke-width="1.5" stroke-linecap="round" stroke-linejoin="round"/>
<path d="M304.316 236.443L237.896 197.676" stroke="#26144D" stroke-width="1.5" stroke-linecap="round" stroke-linejoin="round"/>
<path d="M144.231 349.937C144.938 381.455 142.827 414.165 142.732 445.472" stroke="white" stroke-width="1.5" stroke-linecap="round" stroke-linejoin="round"/>
<path d="M145.078 295.955C144.941 303.372 144.941 311.814 144.709 319.59" stroke="white" stroke-width="1.5" stroke-linecap="round" stroke-linejoin="round"/>
<path d="M77.0435 294.203L-10.3379 406.188" stroke="white" stroke-width="1.5" stroke-linecap="round" stroke-linejoin="round"/>
<path d="M70.7422 -30.9282L109.889 121.808" stroke="white" stroke-width="1.5" stroke-linecap="round" stroke-linejoin="round"/>
<path d="M80.5696 170.473C80.5696 170.473 74.1207 179.853 76.4638 194.509" stroke="white" stroke-width="1.5" stroke-linecap="round" stroke-linejoin="round"/>
</g>
</svg>
